src/assets/duotone/SendSquare.svg

<?xml version="1.0" encoding="UTF-8"?>
<svg width="24" height="24" viewBox="0 0 24 24" xmlns="http://www.w3.org/2000/svg">
 <path d="m16.19 2h-8.37c-3.64 0-5.81 2.17-5.81 5.81v8.37c0 3.64 2.17 5.81 5.81 5.81h8.37c3.64 0 5.81-2.17 5.81-5.81v-8.37c0-3.64-2.17-5.81-5.81-5.81z" opacity=".4"/>
 <path d="m11.47 5.9797c0.2929-0.29289 0.7677-0.29289 1.0606 0l3 3c0.2929 0.29289 0.2929 0.76777 0 1.0606-0.2929 0.2929-0.7677 0.2929-1.0606 0l-2.4697-2.4696-2.4697 2.4696c-0.29289 0.2929-0.76777 0.2929-1.0607 0-0.29289-0.29285-0.29289-0.76773 0-1.0606l3-3z" clip-rule="evenodd" fill-rule="evenodd"/>
 <path d="m12 5.76c0.4142 0 0.75 0.33579 0.75 0.75v8c0 0.4142-0.3358 0.75-0.75 0.75s-0.75-0.3358-0.75-0.75v-8c0-0.41421 0.3358-0.75 0.75-0.75z" clip-rule="evenodd" fill-rule="evenodd"/>
 <path d="m5.2889 16.272c0.13129-0.3928 0.5562-0.6048 0.94905-0.4736 3.7357 1.2485 7.7889 1.2485 11.525 0 0.3928-0.1312 0.8177 0.0808 0.949 0.4736 0.1313 0.3929-0.0807 0.8178-0.4736 0.9491-4.0443 1.3516-8.4311 1.3516-12.475 0-0.39285-0.1313-0.60489-0.5562-0.47361-0.9491z" clip-rule="evenodd" fill-rule="evenodd"/>
</svg>

<svg width="24" height="24" viewBox="0 0 24 24"  xmlns="http://www.w3.org/2000/svg">
<path opacity="0.4" d="M16.1898 2H7.81978C4.17978 2 2.00977 4.17 2.00977 7.81V16.18C2.00977 19.82 4.17978 21.99 7.81978 21.99H16.1898C19.8298 21.99 21.9998 19.82 21.9998 16.18V7.81C21.9998 4.17 19.8298 2 16.1898 2Z" />
<path fill-rule="evenodd" clip-rule="evenodd" d="M11.4697 5.97968C11.7626 5.68679 12.2374 5.68679 12.5303 5.97968L15.5303 8.97968C15.8232 9.27257 15.8232 9.74745 15.5303 10.0403C15.2374 10.3332 14.7626 10.3332 14.4697 10.0403L12 7.57067L9.53033 10.0403C9.23744 10.3332 8.76256 10.3332 8.46967 10.0403C8.17678 9.74745 8.17678 9.27257 8.46967 8.97968L11.4697 5.97968Z" />
<path fill-rule="evenodd" clip-rule="evenodd" d="M12 5.76001C12.4142 5.76001 12.75 6.0958 12.75 6.51001V14.51C12.75 14.9242 12.4142 15.26 12 15.26C11.5858 15.26 11.25 14.9242 11.25 14.51V6.51001C11.25 6.0958 11.5858 5.76001 12 5.76001Z" />
<path fill-rule="evenodd" clip-rule="evenodd" d="M5.28887 16.2722C5.42016 15.8794 5.84507 15.6674 6.23792 15.7986C9.97364 17.0471 14.0268 17.0471 17.7625 15.7986C18.1553 15.6674 18.5802 15.8794 18.7115 16.2722C18.8428 16.6651 18.6308 17.09 18.2379 17.2213C14.1936 18.5729 9.80677 18.5729 5.76248 17.2213C5.36963 17.09 5.15759 16.6651 5.28887 16.2722Z" />
</svg>
